X:6
T:Astridin Vals
Z:Bert Van Vreckem, 2004-04-16 <http://flanders.blackmill.net/music/>
R:Wals
M:3/4
L:1/4
K:Am
E|:"Am"A2 B|c2 d|c c/d/ c/B/|A c e|"F"a>g f/e/|\
"G"d f a|[1"Am"e2 c|"E7"B2E:|[2"C"e3-|"E7"e3|
"Dm""F"a>g f/e/|"G"d f a|"C""Am"e>f e/d/|"Am"c A B|\
"F"c f e|"G"d c B|"Am"A A/B/ c/d/|e>A c/e/|
"Dm""F"a>g f/e/|"G"d f a|"C""Am"e>f e/d/|"Am"A2 B|\
"F"c f e|"G"d c B|"Am"A3-|A2|]
